svgs/light/camera-cctv.svg

<svg xmlns="http://www.w3.org/2000/svg" viewBox="0 0 576 512"><!--! Font Awesome Pro 6.3.0 by @fontawesome - https://fontawesome.com License - https://fontawesome.com/license (Commercial License) Copyright 2023 Fonticons, Inc. --><path d="M525.2 193.7c-1.238-16.59-12.17-31.34-28.48-37.77L150.3 3.617C143.9 1.076 138.4 0 132.8 0C113.7 0 99.74 12.27 93.61 22.78L6.082 176.1c-6.574 11.43-7.76 25.88-3.121 38.56c4.576 12.51 14.17 21.96 27.01 26.62l158.7 65.68l-39.77 109.1H32v-47.98c0-8.797-7.2-16.02-16-16.02C7.201 352 0 359.2 0 368v127.1C0 504.8 7.201 512 15.1 512C24.8 512 32 504.8 32 496v-47.98h128c6.625 0 12.62-4.123 15-10.37l43.23-118.4l71.9 29.76c4.391 1.822 10.23 3.072 16.21 3.072c8.779 0 17.31-2.543 24.67-7.354l173.2-108.1C518.1 227 526.9 210.7 525.2 193.7zM487.3 209.5L313.5 317.9c-2.426 1.586-6.576 3.016-11.12 1.5L40.88 211.2c-10-3.625-9.875-14.25-7-19.24l87.38-153.1c1.52-2.604 7.732-9.354 16.12-5.998L485 185.7C495.5 189.9 496.2 203.7 487.3 209.5zM566.6 274.9l-47.91-21.69c-8.1-3.688-17.54-.0625-21.2 7.969c-3.643 8.031-.0781 17.53 7.975 21.16l33.38 15.12l-28.74 64.09l-87.66-38.56c-8.131-3.5-17.54 .125-21.09 8.219c-3.564 8.094 .1113 17.53 8.209 21.09l102.1 44.92c2.094 .9062 4.403 1.364 6.546 1.364c6.129 0 11.96-3.531 14.62-9.469l41.79-93.14C578.2 287.1 574.6 278.6 566.6 274.9z"/></svg>

<svg xmlns="http://www.w3.org/2000/svg" viewBox="0 0 576 512"><!-- Font Awesome Pro 6.0.0-alpha2 by @fontawesome - https://fontawesome.com License - https://fontawesome.com/license (Commercial License) --><path d="M525.225 193.74C523.986 177.15 513.053 162.404 496.748 155.971L150.258 3.617C143.947 1.076 138.414 0 132.811 0C113.688 0 99.742 12.271 93.609 22.779L6.082 176.121C-0.492 187.547 -1.678 201.996 2.961 214.678C7.537 227.189 17.129 236.641 29.971 241.295L188.643 306.979L148.875 416.029H32V368.045C32 359.248 24.801 352.051 16 352.051C7.201 352.051 0 359.248 0 368.045V496.004C0 504.801 7.201 512 16 512C24.801 512 32 504.801 32 496.004V448.02H160C166.625 448.02 172.625 443.896 175 437.648L218.232 319.229L290.135 348.992C294.525 350.814 300.365 352.064 306.342 352.064C315.121 352.064 323.65 349.521 331.012 344.711L504.199 236.604C518.992 227.041 526.881 210.723 525.225 193.74ZM487.25 209.471L313.5 317.936C311.074 319.521 306.924 320.951 302.375 319.436L40.875 211.221C30.875 207.596 31 196.975 33.875 191.977L121.25 38.898C122.77 36.295 128.982 29.545 137.375 32.9L485 185.729C495.453 189.854 496.213 203.672 487.25 209.471ZM566.604 274.938L518.693 253.25C510.594 249.562 501.15 253.188 497.49 261.219C493.848 269.25 497.412 278.75 505.465 282.375L538.848 297.5L510.109 361.594L422.453 323.031C414.322 319.531 404.91 323.156 401.359 331.25C397.795 339.344 401.471 348.781 409.568 352.344L511.768 397.281C513.861 398.187 516.051 398.625 518.193 398.625C524.322 398.625 530.154 395.094 532.812 389.156L574.592 296.031C578.205 288 574.623 278.562 566.604 274.938Z"/></svg>
